icons/suitcase.svg

<svg width="24" height="24" viewBox="0 0 24 24" fill="none" xmlns="http://www.w3.org/2000/svg">
<path fill-rule="evenodd" clip-rule="evenodd" d="M8 4C8 3.44772 8.44772 3 9 3H15C15.5523 3 16 3.44772 16 4V6H21C21.5523 6 22 6.44772 22 7V20C22 20.5523 21.5523 21 21 21H3C2.44772 21 2 20.5523 2 20V7C2 6.44772 2.44772 6 3 6H8V4ZM6 8H4V19H6V8ZM8 19H16V8H8V19ZM14 6H10V5H14V6ZM18 8V19H20V8H18Z" fill="black"/>
</svg>

<svg
  width="24"
  height="24"
  viewBox="0 0 24 24"
  xmlns="http://www.w3.org/2000/svg"
>
  <path
    fill-rule="evenodd"
    clip-rule="evenodd"
    d="M8 4a1 1 0 0 1 1-1h6a1 1 0 0 1 1 1v2h5a1 1 0 0 1 1 1v13a1 1 0 0 1-1 1H3a1 1 0 0 1-1-1V7a1 1 0 0 1 1-1h5V4zM6 8H4v11h2V8zm2 11h8V8H8v11zm6-13h-4V5h4v1zm4 2v11h2V8h-2z"
  />
</svg>
